pro/src/icons/stroke-logout.svg

<svg width="48" height="48" viewBox="0 0 48 48" fill="none" xmlns="http://www.w3.org/2000/svg">
<path id="icon" fill-rule="evenodd" clip-rule="evenodd" d="M7.0392 8C7.0392 6.8989 7.95184 6 9.09996 6H27.5821C28.7302 6 29.6429 6.8989 29.6429 8V16.59C29.6429 17.1423 30.0994 17.59 30.6625 17.59C31.2256 17.59 31.6821 17.1423 31.6821 16.59V8C31.6821 5.7811 29.8429 4 27.5821 4H9.09996C6.83915 4 5 5.7811 5 8V40C5 42.2189 6.83915 44 9.09996 44H27.5821C29.8429 44 31.6821 42.2189 31.6821 40V32.59C31.6821 32.0377 31.2256 31.59 30.6625 31.59C30.0994 31.59 29.6429 32.0377 29.6429 32.59V40C29.6429 41.1011 28.7302 42 27.5821 42H9.09996C7.95184 42 7.0392 41.1011 7.0392 40V8ZM37.6194 17.9678C37.2158 17.5745 36.5666 17.5692 36.1696 17.9561C35.7725 18.3431 35.7779 18.9756 36.1816 19.3689L39.9913 23.1849L19.3126 23.0129C18.7464 23.0084 18.2912 23.452 18.2959 24.0037C18.3005 24.5554 18.7633 25.0064 19.3296 25.011L40.0027 25.1738L36.2363 28.7115C35.8393 29.0984 35.8447 29.7309 36.2483 30.1243C36.652 30.5176 37.3011 30.5229 37.6982 30.1359L42.4114 25.5432C43.2056 24.7694 43.1948 23.5043 42.3874 22.7176L37.6194 17.9678Z" fill="currentColor"/>
</svg>

<svg xmlns="http://www.w3.org/2000/svg" width="48" height="48" fill="none"><path id="icon" fill="currentColor" fill-rule="evenodd" d="M7.04 8c0-1.101.912-2 2.06-2h18.482c1.148 0 2.06.899 2.06 2v8.59c0 .552.457 1 1.02 1a1.01 1.01 0 0 0 1.02-1V8c0-2.219-1.84-4-4.1-4H9.1C6.84 4 5 5.781 5 8v32c0 2.219 1.84 4 4.1 4h18.482c2.26 0 4.1-1.781 4.1-4v-7.41c0-.552-.456-1-1.02-1a1.01 1.01 0 0 0-1.02 1V40c0 1.101-.912 2-2.06 2H9.1c-1.148 0-2.06-.899-2.06-2zm30.58 9.968a1.044 1.044 0 0 0-1.45-.012.98.98 0 0 0 .012 1.413l3.81 3.816-20.68-.172a.99.99 0 0 0-1.016.99c.005.552.467 1.003 1.034 1.008l20.673.163-3.767 3.538a.98.98 0 0 0 .012 1.412 1.044 1.044 0 0 0 1.45.012l4.713-4.593c.795-.774.784-2.039-.024-2.825z" clip-rule="evenodd"/></svg>
